X: 3
T:Crooked Yew,The. JBa.03
T:Crooked Ewe,The,aka. JBa.03
T:Ewe Wi' The Crooked Horn,aka. JBa.03
M:C
L:1/8
Q:160
C:Ewe Wi' The Crooked Horn,aka.
S:Joseph Barnes MS,Carlisle,1762.
R:reel
O:England
A:Carlisle
N:No key sig in MS, but is in G maj in Joseph . Jackson MS...Bar line
N:after bar 11 not in MS...CGr. Known as Strathspey 'the Ewe Wi' the
N:Crooked Horn' in modern Highland piping..P.Roberts.. 
Z:vmp.C.Graebe.
K:G Major
"No key/time sig. in MS"\
DGGB FGAF | DGGB cABG |\
cBAG FGAG | DGGB AF G2 :||!
Gefg af ge | defg af g2 | Gefg af ge | defg af g2 |!
gd eB cA BG |DGGB cABG |\
 cBAG FGAF"NB" |DGGB AF G2 |]
